src/assets/images/atoa_logo_reversed.svg

<svg width="27" height="12" viewBox="0 0 27 12" fill="none" xmlns="http://www.w3.org/2000/svg">
<g id="Atoa-Logo-Reversed" clip-path="url(#clip0_4439_19376)">
<g id="Clip path group">
<mask id="mask0_4439_19376" style="mask-type:luminance" maskUnits="userSpaceOnUse" x="0" y="0" width="27" height="12">
<g id="c">
<path id="Vector" d="M26.8464 0.648438H0.179688V11.3514H26.8464V0.648438Z" fill="white"/>
</g>
</mask>
<g mask="url(#mask0_4439_19376)">
<g id="b">
<g id="Group">
<g id="Clip path group_2">
<mask id="mask1_4439_19376" style="mask-type:luminance" maskUnits="userSpaceOnUse" x="0" y="0" width="27" height="12">
<g id="a">
<path id="Vector_2" d="M26.8306 0.65625H0.15625V11.3592H26.8306V0.65625Z" fill="white"/>
</g>
</mask>
<g mask="url(#mask1_4439_19376)">
<g id="Group_2">
<path id="Vector_3" d="M18.4838 8.22937C18.5105 9.00566 18.2316 9.76163 17.7064 10.3361C17.3417 10.7394 16.8949 11.0132 16.3789 11.1829C15.9312 11.3296 15.4587 11.3868 14.9887 11.3514C14.3854 11.3084 13.8226 11.1359 13.3193 10.7938C12.9093 10.5157 12.5761 10.1394 12.3505 9.69949C12.2211 9.4552 12.1283 9.19341 12.075 8.92241C11.9894 8.48561 11.9856 8.03683 12.0636 7.59864C12.1757 6.95061 12.5034 6.35896 12.9942 5.91887C13.3988 5.54783 13.878 5.31466 14.413 5.18975C14.8294 5.0925 15.2599 5.0689 15.6845 5.12004C16.2233 5.18339 16.7234 5.35402 17.1748 5.6568C17.4646 5.85175 17.7165 6.09722 17.9186 6.38138C18.1171 6.654 18.2676 6.95831 18.3634 7.28125C18.4314 7.5158 18.4717 7.75746 18.4834 8.00131C18.487 8.07733 18.4838 8.15335 18.4838 8.22937ZM16.6553 8.23076C16.6544 7.95875 16.6139 7.69763 16.4967 7.45226C16.3935 7.22505 16.223 7.03473 16.008 6.9069C15.5956 6.66795 15.1623 6.63899 14.7159 6.79829C14.4784 6.88241 14.273 7.03787 14.128 7.2432C13.979 7.45432 13.8873 7.70015 13.8616 7.95692C13.8212 8.31672 13.848 8.66838 14.0048 9.00192C14.124 9.26473 14.3321 9.47758 14.5927 9.60339C14.9218 9.76612 15.3003 9.80004 15.6533 9.69844C16.0566 9.58936 16.3457 9.34228 16.5157 8.95939C16.6185 8.72587 16.6539 8.48012 16.6553 8.23076Z" fill="white"/>
<path id="Vector_4" d="M11.0419 0.664062H9.10156V11.358H11.0419V0.664062Z" fill="white"/>
<path id="Vector_5" d="M18.8341 4.41266L19.7433 3.50297L18.8341 2.59375H7.26562V4.41266H18.8341Z" fill="white"/>
<path id="Vector_6" d="M5.7005 0.65625H2.75084C2.75084 0.65625 0.184 11.2398 0.15625 11.3574C0.15625 11.352 2.30891 11.3632 2.30392 11.3574C2.43622 10.7329 2.56852 10.1124 2.70127 9.4901H5.13761C5.259 10.1133 5.38008 10.7359 5.50085 11.3579H8.2777C7.41848 7.78979 6.55941 4.22256 5.7005 0.65625ZM3.08545 7.71962C3.3896 6.23939 3.7533 4.77517 3.93801 3.27669C3.9526 3.27669 3.96757 3.27716 3.98257 3.27716C4.15625 4.77203 4.48902 6.23837 4.77181 7.71965L3.08545 7.71962Z" fill="white"/>
<path id="Vector_7" d="M24.2478 0.65625H21.2981C21.2981 0.65625 18.7308 11.2397 18.7031 11.3574C18.7031 11.352 20.8562 11.3632 20.8508 11.3574C20.9835 10.7329 21.1158 10.1124 21.2481 9.49007H23.6845C23.8059 10.1133 23.927 10.7359 24.0477 11.3579H26.825C25.9653 7.78978 25.1062 4.22256 24.2478 0.65625ZM21.6323 7.71962C21.9364 6.23924 22.3005 4.77516 22.4847 3.27669C22.4997 3.27669 22.5143 3.27716 22.5293 3.27716C22.7034 4.77203 23.0362 6.23837 23.3189 7.71965L21.6323 7.71962Z" fill="white"/>
</g>
</g>
</g>
</g>
</g>
</g>
</g>
</g>
<defs>
<clipPath id="clip0_4439_19376">
<rect width="26.6667" height="10.703" fill="white" transform="translate(0.164062 0.648438)"/>
</clipPath>
</defs>
</svg>

<svg width="27" height="12" fill="none" xmlns="http://www.w3.org/2000/svg"><g clip-path="url(#a)"><mask id="b" style="mask-type:luminance" maskUnits="userSpaceOnUse" x="0" y="0" width="27" height="12"><path d="M26.846.648H.18v10.703h26.666V.648z" fill="#fff"/></mask><g mask="url(#b)"><mask id="c" style="mask-type:luminance" maskUnits="userSpaceOnUse" x="0" y="0" width="27" height="12"><path d="M26.83.656H.157V11.36h26.675V.656z" fill="#fff"/></mask><g fill="#fff" mask="url(#c)"><path d="M18.484 8.23a2.97 2.97 0 0 1-.778 2.106 3.022 3.022 0 0 1-1.327.847c-.448.147-.92.204-1.39.168a3.333 3.333 0 0 1-1.67-.557 2.948 2.948 0 0 1-.969-1.095 2.825 2.825 0 0 1-.275-.777 3.601 3.601 0 0 1-.011-1.323c.112-.648.44-1.24.93-1.68a3.098 3.098 0 0 1 1.419-.73c.416-.096.847-.12 1.271-.069a3.33 3.33 0 0 1 1.49.537c.29.195.543.44.745.724a2.958 2.958 0 0 1 .564 1.62c.004.076 0 .152 0 .228zm-1.829 0c0-.271-.041-.532-.158-.778a1.223 1.223 0 0 0-.489-.545 1.477 1.477 0 0 0-1.292-.109c-.238.084-.443.24-.588.445-.149.211-.24.457-.266.714-.04.36-.014.711.143 1.045.119.263.327.476.588.601.329.163.707.197 1.06.095.404-.109.693-.356.863-.739.103-.233.138-.479.14-.728zM11.042.664h-1.94v10.694h1.94V.664z"/><path d="m18.834 4.413.91-.91-.91-.91H7.266v1.82h11.568zM5.7.656H2.75L.157 11.357c0-.005 2.153.006 2.148 0L2.7 9.49h2.437l.363 1.868h2.777L5.7.656zM3.085 7.72c.305-1.48.668-2.945.853-4.443h.045c.173 1.495.506 2.961.789 4.443H3.085zM24.248.656h-2.95l-2.595 10.701c0-.005 2.153.006 2.148 0l.397-1.867h2.436l.364 1.868h2.777L24.248.656zM21.632 7.72c.304-1.48.668-2.945.853-4.443h.044c.174 1.495.507 2.961.79 4.443h-1.687z"/></g></g></g><defs><clipPath id="a"><path fill="#fff" transform="translate(.164 .648)" d="M0 0h26.667v10.703H0z"/></clipPath></defs></svg>
